F[BALLADE
CUT[Die Mordeltern
    Es waren einmal zwei Bauernsoehn,]
CNR[die hatten Lust, in den Krieg zu gehn,]
REG[Mitteleuropa, Deutschland / Frankreich, Lothringen]
SRC[4, S. 308
    ????]
KEY[Q0085J 16  G 3/4 2/4]
MEL[-5_(-5_-6_-7_)  1__.-5_(1_2_3_)  2__.
    4_3_2_  1__.-5-6-7b_-6_  -5__.0_
    2_.4  3_2_1__  3_2_1__  -7___  1__0__
    2_.4  3_2_1__  3_2_1__  -7___  1__0_ //] >>
FCT[Ballade, Habgier, Mord, Reue, Selbstmord]
